X: 1
T: B\`u b\`u g\=ao
%T: Bu4 bu4 gao1
T: Stepping high
%T: 步步高 (难度版)
O: trad Guangdong
Z: 2011 John Chambers <jc@trillian.mit.edu>
S: http://www.gangqinpu.com/fullread.asp?id=4974
M: 4/4
L: 1/16
K: C
|: z8 | z8 ||\
E2E2 G4 | Tg2e2 decd | A2c2 G2G2 | z2EG D2E2 |\
G2EG c2E2 | G4 FGE2 | FGE2 DEGA | C4- C2DE |
C2DE C2DE | C2C2- C2D2 | EDE2- E2G2 | A2c2 G2F2 |\
EDE2 z2G2 | d4 z2e2 | dedc Acde | Tc3A G2A2 |
Tc2Ac G2c2 | c4 z4 | c2AG EGAc | G4 G4 |\
CDE2 [D2B,2]E2 | CDE2 [D2B,2]E2 | [G2E2]ED C2B,2 | C4- C2z2 |
z2G,A, C2D2 | E2E2 z2G2 | c2B2 A2G2 | e2e2- e2d2 |\
c4 z2 | .[d2B2].[dB].[ec] .c4 | .[d2B2].[dB].[ec] .c4 | Tedcd Tedcd |
Teged c4 | z2Ac G2E2 | z2A2 G2F2 | E2D2 C2D2 |\
E2A,2 B,2D2 | E2E2 z2AG | E2G2 | z2Ac |
G2G2 z2Ac | G2G2 z2Td2 | c2c2 z2ed | c2c2 z2Td2 |\
e2e2- e2d2 | e2d2 e2g2 | d2c2 B2A2 | G2G2 z2AG |
F2G2- G2F2 | G2z2 .c'z E2 | G2ED CDEG | D2G,2 C4 |\
[c'3c4]b a2a2 | [g3G4]f e2e2 | [f3F4]e d2d2 | [e3c3]d c2G,A, |
C2C2 C2DE | G2G2- G2cA | GcAG E2DE | D2 C4 D2 |\
E3D E2G2 | A2B2 cded | c4 c4 | J[c'8c8] |]


%%sep 5 1 500

